Newaita-dark/apps/22/jgray.svg

<svg height="22" viewBox="0 0 22 22" width="22" xmlns="http://www.w3.org/2000/svg" xmlns:xlink="http://www.w3.org/1999/xlink"><linearGradient id="a" gradientUnits="userSpaceOnUse" x1="9.3233296" x2="9.3233296" y1="19.27333479459" y2="20.18292742919"><stop offset="0" stop-opacity=".27451"/><stop offset="1" stop-opacity="0"/></linearGradient><linearGradient id="b"><stop offset="0" stop-opacity=".313726"/><stop offset=".222222" stop-opacity=".27451"/><stop offset="1" stop-opacity="0"/></linearGradient><radialGradient id="c" cx="450.908936" cy="189.579361" gradientTransform="matrix(.00000012 -.0537161 -.0966889 -.00000007 29.700075 43.721792)" gradientUnits="userSpaceOnUse" r="21.166656" xlink:href="#b"/><radialGradient id="d" cx="450.908936" cy="189.579361" gradientTransform="matrix(-.00000012 .0537161 .0966889 .00000007 -7.869863 -5.175142)" gradientUnits="userSpaceOnUse" r="21.166656" xlink:href="#b"/><radialGradient id="e" cx="450.908936" cy="189.579361" gradientTransform="matrix(-.00000012 -.0537161 .0966889 -.00000007 -7.869863 43.721792)" gradientUnits="userSpaceOnUse" r="21.166656" xlink:href="#b"/><radialGradient id="f" cx="450.908936" cy="189.579361" gradientTransform="matrix(.00000012 .0537161 -.0966889 .00000007 29.700074 -5.175145)" gradientUnits="userSpaceOnUse" r="21.166656" xlink:href="#b"/><linearGradient id="g" gradientUnits="userSpaceOnUse" x1="10.9151166" x2="10.91511724459" y1="22.0021143" y2=".1718811"><stop offset="0" stop-color="#757575"/><stop offset="1" stop-color="#9e9e9e"/></linearGradient><path d="m10.234375 18.933594h1.363281v1.25h-1.363281zm0 0" fill="url(#a)"/><path d="m11.597656 19.273438h1.820313v-.910157h-1.820313zm0 0" fill="url(#c)"/><path d="m10.234375 19.273438h-1.820313v.910156h1.820313zm0 0" fill="url(#d)"/><path d="m10.234375 19.273438h-1.820313v-.910157h1.820313zm0 0" fill="url(#e)"/><path d="m11.597656 19.273438h1.820313v.910156h-1.820313zm0 0" fill="url(#f)"/><path d="m9.097656 1.992188v2.726562c.273438.058594 1.765625-.011719 2.269532-.007812.683593.007812.457031.691406.457031.691406s.046875 1.109375.046875 5.144531c0 6.757813.09375 6.582031-2.023438 6.578125-1.808594-.003906-2.167968-.46875-1.285156-1.449219 1.347656-1.878906-.300781-3.527343-2.195312-3.679687-1.820313 0-3.636719 0-3.601563 2.738281-.035156 4.539063 4.699219 4.507813 7.132813 4.550781 2.835937-.011718 5.21875-.464844 6.472656-3.195312.445312-1.152344.492187-10.492188.492187-10.492188-.035156.03125-.035156-.878906.417969-.878906h1.820312l.023438-2.726562zm0 0" fill="url(#g)"/><path d="m9.097656 1.992188v.226562h10.027344v-.226562zm2.753906 3.289062c-.011718.070312-.027343.121094-.027343.121094s.003906.066406.007812.203125c.011719-.050781.042969-.1875.019531-.324219zm5.003907.308594c-.011719.136718-.003907.238281.007812.234375 0-.085938 0-.226563 0-.226563s-.003906 0-.007812-.007812zm-10.488281 6.40625c-1.820313 0-3.636719 0-3.601563 2.738281v.074219c.03125-2.585938 1.816406-2.585938 3.601563-2.585938 1.371093.109375 2.609374 1.003906 2.683593 2.199219.082031-1.308594-1.226562-2.308594-2.683593-2.425781zm5.503906.273437c0 5.003907-.105469 4.859375-2.023438 4.855469-1.074218 0-1.640625-.167969-1.734375-.507812-.113281.496093.441407.734374 1.734375.734374 1.945313.003907 2.023438.148438 2.023438-5.082031zm0 0" fill="#fff" fill-opacity=".392157"/><path d="m19.125 1.992188-.023438 2.542968h-1.820312c-.40625 0-.449219.730469-.425781.859375.019531-.257812.121093-.675781.425781-.675781h1.820312zm-7.863281 2.535156c-.582031.003906-1.90625.0625-2.164063.007812v.183594c.273438.058594 1.765625-.011719 2.269532-.007812.351562.003906.464843.1875.488281.363281.023437-.199219-.007813-.539063-.488281-.546875-.03125 0-.066407 0-.105469 0zm.566406.855468c0 .011719-.003906.019532-.003906.019532s.046875 1.109375.046875 5.144531v1.1875c0-.421875 0-.875 0-1.371094 0-3.226562-.027344-4.566406-.042969-4.980469zm5.035156.214844c-.007812.949219-.070312 9.222656-.492187 10.308594-1.253906 2.730469-3.636719 3.183594-6.472656 3.195312-2.429688-.042968-7.148438-.011718-7.132813-4.519531v.152344c-.035156 4.539063 4.699219 4.507813 7.132813 4.550781 2.835937-.011718 5.21875-.464844 6.472656-3.195312.445312-1.152344.492187-10.492188.492187-10.492188zm-7.8125 8.617188c-.019531.402344-.167969.835937-.488281 1.28125-.347656.382812-.503906.6875-.453125.917968.039063-.199218.191406-.445312.453125-.738281.367188-.511719.511719-1.007812.488281-1.460937zm0 0" fill-opacity=".235294"/><path d="m211.707056-168.640791v63.448487c6.363028 1.363506 41.086985-.272702 52.813138-.181801 15.907572.181801 10.635348 16.089373 10.635348 16.089373s1.090805 25.815716 1.090805 119.71584c0 157.25771 2.18161 153.167191-47.086412 153.076291-42.08689-.0909-50.449728-10.908049-29.906236-33.724052 31.360642-43.723098-6.999331-82.083071-51.08603-85.628187-42.359591 0-84.628282 0-83.810178 63.721188-.818104 105.626277 109.353193 104.899073 165.984149 105.898978 65.993698-.272701 121.442948-10.817149 150.62198-74.356536 10.362647-26.815621 11.453451-244.158502 11.453451-244.158502-.818103.727203-.818103-20.452592 9.726344-20.452592h42.359592l.545402-63.448487zm0 0" fill="none" stroke="#212121" stroke-width="3" transform="matrix(.0429729 0 0 .0429729 0 9.239163)"/></svg>

<?xml version="1.0" encoding="UTF-8"?>
<svg xmlns="http://www.w3.org/2000/svg" xmlns:xlink="http://www.w3.org/1999/xlink" width="22px" height="22px" viewBox="0 0 22 22" version="1.1">
<defs>
<linearGradient id="linear0" gradientUnits="userSpaceOnUse" x1="254" y1="233.500015" x2="254" y2="254.666672" gradientTransform="matrix(0.0429729,0,0,0.0429729,-1.591787,9.239162)">
<stop offset="0" style="stop-color:rgb(0%,0%,0%);stop-opacity:0.27451;"/>
<stop offset="1" style="stop-color:rgb(0%,0%,0%);stop-opacity:0;"/>
</linearGradient>
<radialGradient id="radial0" gradientUnits="userSpaceOnUse" cx="450.908936" cy="189.579361" fx="450.908936" fy="189.579361" r="21.166656" gradientTransform="matrix(0.000000119742,-0.0537161,-0.0966889,-0.0000000698078,29.700075,43.721792)">
<stop offset="0" style="stop-color:rgb(0%,0%,0%);stop-opacity:0.313726;"/>
<stop offset="0.222222" style="stop-color:rgb(0%,0%,0%);stop-opacity:0.27451;"/>
<stop offset="1" style="stop-color:rgb(0%,0%,0%);stop-opacity:0;"/>
</radialGradient>
<radialGradient id="radial1" gradientUnits="userSpaceOnUse" cx="450.908936" cy="189.579361" fx="450.908936" fy="189.579361" r="21.166656" gradientTransform="matrix(-0.000000119742,0.0537161,0.0966889,0.0000000698078,-7.869863,-5.175142)">
<stop offset="0" style="stop-color:rgb(0%,0%,0%);stop-opacity:0.313726;"/>
<stop offset="0.222222" style="stop-color:rgb(0%,0%,0%);stop-opacity:0.27451;"/>
<stop offset="1" style="stop-color:rgb(0%,0%,0%);stop-opacity:0;"/>
</radialGradient>
<radialGradient id="radial2" gradientUnits="userSpaceOnUse" cx="450.908936" cy="189.579361" fx="450.908936" fy="189.579361" r="21.166656" gradientTransform="matrix(-0.000000119742,-0.0537161,0.0966889,-0.0000000698078,-7.869863,43.721792)">
<stop offset="0" style="stop-color:rgb(0%,0%,0%);stop-opacity:0.313726;"/>
<stop offset="0.222222" style="stop-color:rgb(0%,0%,0%);stop-opacity:0.27451;"/>
<stop offset="1" style="stop-color:rgb(0%,0%,0%);stop-opacity:0;"/>
</radialGradient>
<radialGradient id="radial3" gradientUnits="userSpaceOnUse" cx="450.908936" cy="189.579361" fx="450.908936" fy="189.579361" r="21.166656" gradientTransform="matrix(0.000000119742,0.0537161,-0.0966889,0.0000000698078,29.700074,-5.175145)">
<stop offset="0" style="stop-color:rgb(0%,0%,0%);stop-opacity:0.313726;"/>
<stop offset="0.222222" style="stop-color:rgb(0%,0%,0%);stop-opacity:0.27451;"/>
<stop offset="1" style="stop-color:rgb(0%,0%,0%);stop-opacity:0;"/>
</radialGradient>
<linearGradient id="linear1" gradientUnits="userSpaceOnUse" x1="254" y1="297" x2="254.000015" y2="-211" gradientTransform="matrix(0.0429729,0,0,0.0429729,0,9.239163)">
<stop offset="0" style="stop-color:rgb(45.882353%,45.882353%,45.882353%);stop-opacity:1;"/>
<stop offset="1" style="stop-color:rgb(61.960787%,61.960787%,61.960787%);stop-opacity:1;"/>
</linearGradient>
</defs>
<g id="surface1">
<path style=" stroke:none;fill-rule:nonzero;fill:url(#linear0);" d="M 10.234375 18.933594 L 11.597656 18.933594 L 11.597656 20.183594 L 10.234375 20.183594 Z M 10.234375 18.933594 "/>
<path style=" stroke:none;fill-rule:nonzero;fill:url(#radial0);" d="M 11.597656 19.273438 L 13.417969 19.273438 L 13.417969 18.363281 L 11.597656 18.363281 Z M 11.597656 19.273438 "/>
<path style=" stroke:none;fill-rule:nonzero;fill:url(#radial1);" d="M 10.234375 19.273438 L 8.414062 19.273438 L 8.414062 20.183594 L 10.234375 20.183594 Z M 10.234375 19.273438 "/>
<path style=" stroke:none;fill-rule:nonzero;fill:url(#radial2);" d="M 10.234375 19.273438 L 8.414062 19.273438 L 8.414062 18.363281 L 10.234375 18.363281 Z M 10.234375 19.273438 "/>
<path style=" stroke:none;fill-rule:nonzero;fill:url(#radial3);" d="M 11.597656 19.273438 L 13.417969 19.273438 L 13.417969 20.183594 L 11.597656 20.183594 Z M 11.597656 19.273438 "/>
<path style=" stroke:none;fill-rule:nonzero;fill:url(#linear1);" d="M 9.097656 1.992188 L 9.097656 4.71875 C 9.371094 4.777344 10.863281 4.707031 11.367188 4.710938 C 12.050781 4.71875 11.824219 5.402344 11.824219 5.402344 C 11.824219 5.402344 11.871094 6.511719 11.871094 10.546875 C 11.871094 17.304688 11.964844 17.128906 9.847656 17.125 C 8.039062 17.121094 7.679688 16.65625 8.5625 15.675781 C 9.910156 13.796875 8.261719 12.148438 6.367188 11.996094 C 4.546875 11.996094 2.730469 11.996094 2.765625 14.734375 C 2.730469 19.273438 7.464844 19.242188 9.898438 19.285156 C 12.734375 19.273438 15.117188 18.820312 16.371094 16.089844 C 16.816406 14.9375 16.863281 5.597656 16.863281 5.597656 C 16.828125 5.628906 16.828125 4.71875 17.28125 4.71875 L 19.101562 4.71875 L 19.125 1.992188 Z M 9.097656 1.992188 "/>
<path style=" stroke:none;fill-rule:nonzero;fill:rgb(100%,100%,100%);fill-opacity:0.392157;" d="M 9.097656 1.992188 L 9.097656 2.21875 L 19.125 2.21875 L 19.125 1.992188 Z M 11.851562 5.28125 C 11.839844 5.351562 11.824219 5.402344 11.824219 5.402344 C 11.824219 5.402344 11.828125 5.46875 11.832031 5.605469 C 11.84375 5.554688 11.875 5.417969 11.851562 5.28125 Z M 16.855469 5.589844 C 16.84375 5.726562 16.851562 5.828125 16.863281 5.824219 C 16.863281 5.738281 16.863281 5.597656 16.863281 5.597656 C 16.863281 5.597656 16.859375 5.597656 16.855469 5.589844 Z M 6.367188 11.996094 C 4.546875 11.996094 2.730469 11.996094 2.765625 14.734375 C 2.765625 14.761719 2.765625 14.785156 2.765625 14.808594 C 2.796875 12.222656 4.582031 12.222656 6.367188 12.222656 C 7.738281 12.332031 8.976562 13.226562 9.050781 14.421875 C 9.132812 13.113281 7.824219 12.113281 6.367188 11.996094 Z M 11.871094 12.269531 C 11.871094 17.273438 11.765625 17.128906 9.847656 17.125 C 8.773438 17.125 8.207031 16.957031 8.113281 16.617188 C 8 17.113281 8.554688 17.351562 9.847656 17.351562 C 11.792969 17.355469 11.871094 17.5 11.871094 12.269531 Z M 11.871094 12.269531 "/>
<path style=" stroke:none;fill-rule:nonzero;fill:rgb(0%,0%,0%);fill-opacity:0.235294;" d="M 19.125 1.992188 L 19.101562 4.535156 L 17.28125 4.535156 C 16.875 4.535156 16.832031 5.265625 16.855469 5.394531 C 16.875 5.136719 16.976562 4.71875 17.28125 4.71875 L 19.101562 4.71875 Z M 11.261719 4.527344 C 10.679688 4.53125 9.355469 4.589844 9.097656 4.535156 L 9.097656 4.71875 C 9.371094 4.777344 10.863281 4.707031 11.367188 4.710938 C 11.71875 4.714844 11.832031 4.898438 11.855469 5.074219 C 11.878906 4.875 11.847656 4.535156 11.367188 4.527344 C 11.335938 4.527344 11.300781 4.527344 11.261719 4.527344 Z M 11.828125 5.382812 C 11.828125 5.394531 11.824219 5.402344 11.824219 5.402344 C 11.824219 5.402344 11.871094 6.511719 11.871094 10.546875 C 11.871094 10.96875 11.871094 11.363281 11.871094 11.734375 C 11.871094 11.3125 11.871094 10.859375 11.871094 10.363281 C 11.871094 7.136719 11.84375 5.796875 11.828125 5.382812 Z M 16.863281 5.597656 C 16.855469 6.546875 16.792969 14.820312 16.371094 15.90625 C 15.117188 18.636719 12.734375 19.089844 9.898438 19.101562 C 7.46875 19.058594 2.75 19.089844 2.765625 14.582031 C 2.765625 14.632812 2.765625 14.683594 2.765625 14.734375 C 2.730469 19.273438 7.464844 19.242188 9.898438 19.285156 C 12.734375 19.273438 15.117188 18.820312 16.371094 16.089844 C 16.816406 14.9375 16.863281 5.597656 16.863281 5.597656 Z M 9.050781 14.214844 C 9.03125 14.617188 8.882812 15.050781 8.5625 15.496094 C 8.214844 15.878906 8.058594 16.183594 8.109375 16.414062 C 8.148438 16.214844 8.300781 15.96875 8.5625 15.675781 C 8.929688 15.164062 9.074219 14.667969 9.050781 14.214844 Z M 9.050781 14.214844 "/>
<path style="fill:none;stroke-width:3;stroke-linecap:butt;stroke-linejoin:miter;stroke:rgb(12.941177%,12.941177%,12.941177%);stroke-opacity:1;stroke-miterlimit:4;" d="M 211.707056 -168.640791 L 211.707056 -105.192304 C 218.070084 -103.828798 252.794041 -105.465006 264.520194 -105.374105 C 280.427766 -105.192304 275.155542 -89.284732 275.155542 -89.284732 C 275.155542 -89.284732 276.246347 -63.469016 276.246347 30.431108 C 276.246347 187.688818 278.427957 183.598299 229.159935 183.507399 C 187.073045 183.416499 178.710207 172.59935 199.253699 149.783347 C 230.614341 106.060249 192.254368 67.700276 148.167669 64.15516 C 105.808078 64.15516 63.539387 64.15516 64.357491 127.876348 C 63.539387 233.502625 173.710684 232.775421 230.34164 233.775326 C 296.335338 233.502625 351.784588 222.958177 380.96362 159.41879 C 391.326267 132.603169 392.417071 -84.739712 392.417071 -84.739712 C 391.598968 -84.012509 391.598968 -105.192304 402.143415 -105.192304 L 444.503007 -105.192304 L 445.048409 -168.640791 Z M 211.707056 -168.640791 " transform="matrix(0.0429729,0,0,0.0429729,0,9.239163)"/>
</g>
</svg>
